X: 34761
T: Road To Monalea, The
R: reel
M: 4/4
K: Ddorian
dcAc d3e|dcAG EDD2|cAGA cded|cAGE EDD2|
dcAc d3e|dcAG EGD2|EGAG cded|cAGE EDD2:|
|:dcAc d2cd|eaag egd2|gede c3d|egag ged2|
dcAc d2cd|eaag egd2|cG~G2 cded|cAG E D4:|

